!!!COM: Richard Wagner
!!!CNT: Deutsch
!!!TXO: Deutsch
!!!OTL: Lied der Mephistopheles II
!!!LYR: Goethe
!!!OPR: Sieben Kompositionen zu Goethes Faust
!!!OPS: Op. 5
!!!ONM: No. 5
!!!ENC: Ben Fuhrman
!!!YOR: IMSLP, no information given on the edition
!!!YOR: http://imslp.org/wiki/7_Kompositionen_zu_Goethes_Faust,_WWV_15_%28Wagner,_Richard%29
!!!ODT: 1831
!!NB: Only vocal melody encoded.
!!NB: First instance of melodic material only encoded.
!!created: 2/9/10 2:21PM
!!proofed and posted: 2/9/10 2:21PM
**kern	**silbe
*clef G2	*
*k[f#]	*
*M2/4	*
*MM[Ma2ssig geschwind]	*
=2	=2
4r	.
8r	.
{8B	{Was
=3	=3
8B	machst
8A	du
8G	mir
16r	.
16G	vor
=4	=4
8G	Lieb-
8F#	-chens
8E	Tu2r,
16r	.
16E	Kath-
=5	=5
(8E	-rin-
16F#	|
16G#	|
8F#)	|
8E	-chen,
=6	=6
8D#}	hier}
8r	.
8r	.
{8D#	{bei
=7	=7
8E	fru2-
8F#	-hem
8G	Ta-
8A	-ges
=8	=8
8B	-bli-
8BB}	-cke?}
4r	.
=9	=9
{4B	{Lass,
8.A#	lass
16A#	es
=10	=10
4an	sein!
4r	.
=11	=11
4G#	Er
8.Gn	la2st
16Gn	dich
=12	=12
4F#}	ein,}
8r	.
{8F#	{als
=13	=13
8.F#	Ma2d-
16F#	-chen
8G#	ein,
8G#	als
=14	=14
8.F#	Ma2d-
16F#	-chen
8G	nicht
8F#	zu-
=15	=15
8E	-ru2-
8E}	-cke,}
4r	.
=16	=16
2r	.
=17	=17
4r	.
8r	.
{8B	{Nehmt
=18	=18
8B	euch
8A	in
8G	Acht!
8r	.
=19	=19
8G	Ist
16G	es
16F#	voll-
8E	-bracht,
16r	.
16E	dann
=20	=20
(8E	gu-
16F#	|
16G	|
8F#)	|
8E	-te
=21	=21
8D#}	Nacht}
8r	.
8r	.
{8D#	{ihr
=22	=22
8E	ar-
8F#	-men,
8G	ar-
8A	-men
=23	=23
8B	Din-
8BB}	-ger!}
4r	.
=24	=24
{4B	{Habt
8.A#	ihr
16A#	euch
=25	=25
4An	lieb,
4r	.
=26	=26
4G#	tut
!! marked as a dotted quarter in the score, but is should just be a quarter as in measure 11 - Fuhrman
8.Gn	kei-
16Gn	-nem
=27	=27
4F#}	Dieb}
8r	.
{8F#	{nur
=28	=28
8.F#	nichts
16F#	zu
8G	Lieb',
8G	als
=29	=29
8.F#	mit
16F#	dem
8G	Ring
8F#	am
=30	=30
8E	Fin-
8E}	-ger.}
4r	.
==	==
*-	*-
